16x16/apps/com.gitlab.newsflash.svg

<svg xmlns="http://www.w3.org/2000/svg" width="16" height="16" version="1.1">
 <path style="fill:#ff7800" d="M 1.2307693,1 H 14.769231 C 15.448918,1 16,1.5373046 16,2.2 V 14.8 C 16,15.462696 15.448918,16 14.769231,16 H 1.2307693 C 0.5510818,16 8e-8,15.462696 8e-8,14.8 V 2.2 C 8e-8,1.5373046 0.5510818,1 1.2307693,1 Z m 0,0"/>
 <path style="fill:#f4f4f7" d="M 7.5049328,4.0853845 6.0051269,8.8031299 c -0.011413,0.044069 -0.00236,0.090342 0.013314,0.1162332 0.019973,0.025894 0.038042,0.056739 0.091301,0.062248 l 1.0518611,-0.00551 c 0.035664,0 0.067049,0.018176 0.080364,0.056739 0.00856,0.033604 0.010933,0.067206 0,0.11403 L 6.3303847,12.839242 c -0.00666,0.03085 -0.015693,0.100257 0.046602,0.147082 0.04042,0.02809 0.1207834,0.01267 0.1697626,-0.04407 L 9.9805166,8.2765561 C 10.002863,8.2352401 10.005245,8.163077 9.9914499,8.129474 9.9781344,8.09587 9.949121,8.049047 9.8825536,8.041335 L 8.2800354,7.9719256 C 8.2334337,7.9614593 8.217742,7.9355693 8.2044271,7.9151862 8.1868337,7.8837874 8.182077,7.8402677 8.2001437,7.7934439 L 9.5125965,4.1443274 c 0.017593,-0.043519 0.017593,-0.074367 0.00666,-0.098055 -0.00903,-0.020381 -0.038042,-0.046273 -0.088923,-0.046273 h -1.789402 c -0.02473,0 -0.1093711,0.010466 -0.1360004,0.085385 z"/>
</svg>

<svg xmlns="http://www.w3.org/2000/svg" width="16" height="16"><path style="fill:#ff7800" d="M1.23 1h13.54c.679 0 1.23.537 1.23 1.2v12.6c0 .663-.551 1.2-1.23 1.2H1.23C.552 16 0 15.463 0 14.8V2.2C0 1.537.551 1 1.23 1zm0 0"/><path style="fill:#f4f4f7" d="m7.505 4.085-1.5 4.718a.162.162 0 0 0 .013.116c.02.026.038.057.092.063l1.052-.006a.08.08 0 0 1 .08.057.224.224 0 0 1 0 .114l-.912 3.692c-.006.031-.015.1.047.147.04.028.12.013.17-.044L9.98 8.277a.21.21 0 0 0 .01-.148.13.13 0 0 0-.108-.088l-1.603-.07c-.047-.01-.062-.035-.076-.056a.143.143 0 0 1-.004-.122l1.313-3.649c.017-.043.017-.074.006-.098C9.51 4.026 9.481 4 9.43 4H7.64c-.024 0-.108.01-.135.085z"/></svg>
